X:1
T:Etude No. 1
T:Etude No. 1
T:Giulio Regondi
C:Giulio Regondi
%%score ( 1 2 3 4 )
L:1/8
Q:1/4=80
M:2/2
K:C
V:1 treble-8 nm="Classical Guitar" snm="Guit."
V:2 treble-8 
V:3 treble-8 
V:4 treble-8 
V:1
"^Allegretto moderato" !0![Ge](!1!f/e/) !4!d/(!1!c/B/)!2!A/ [CG]c/d/ e/f/(g/e/) | %1
 !2!!1![Af]!4!a/!2!g/ (f/e/)d/c/ !0![DB]/TG/^F/G/ A/B/c/d/ | e>e e>e e>e"^cI" g>f | %3
 [Gce]/!-(!!4!g/!-)!c'/!3!b/ !1!a/(!4!g/f/)!0!e/ !0!!4![DGd]/c/B/A/ G/F/(E/D/) | %4
 [Ge](f/e/) d/(c/B/)A/ [CG]c/d/ e/f/(g/e/) | [Af]a/g/ (f/e/)d/c/ [DB]/TG/^F/G/ A/B/c/d/ | %6
 !0!e>e e>e e>e"^cI" g>f | !0!e7/2 !2!d/ !1!c2 !4!^F/!0!G/c/!0!e/ | %8
 !0!!4![Gd]e/d/ (c/B/)A/G/ !1![GBb]/(!4!a/!2!g/)!1!^f/ !0!e/!4!d/(c/!0!B/) | %9
 [Ec]e/d/ (c/B/)A/G/ !3!^F/T!0!D/^C/D/ E/F/G/A/ | B>B !4!d>d !4!g>g"^1/2 cV" b>a | %11
 !2!^f>g f>e !2!!1![^Fd]!4!a/!2!g/ (!1!f/e/)d/^c/ | %12
 !0!!4![Gd]e/d/ ((c/B/))A/G/ !1![GBb]/((!4!a/!2!g/))!1!^f/ !0!e/d/((^c/B/)) | %13
 !2!^A>!-(!!3!g !-)!^f>!0!e e>!2!d d>!2!^c | %14
 !3!^f!4![DBg]/(f/ e/)d/(^c/B/) ^A/G/^F/^E/ (F/=E/)^C/D/ | %15
 B,/^F/!0!B/"^1/2 cVII"!1!d/"_rit." ^f/b/(d'/^c'/) b/(g/f/)d/ !fermata!!0!B2 | %16
"^1/2 cV" b3 a/b/ c'2 a2 |"^1/2 cIII" a3 g/a/ !4!b2"^cIII" g2 | %18
 !4!^f3 !-(!!4!g/!-)!f/ !0!e3 !3!f/e/ |"^cII" ^d3 e/^f/ !4!a2 !4!g!4!e' | %20
 !4!^f2"^1/2 cV" ac' !4!b!4!gec | B2- B/^d/(g/^f/) Pf2 !0!e2 | !0!e2- e/(d/^c/)d/ e2- e/(d/c/)d/ | %23
 g2- g/(^f/^e/)f/ !4!a2- a/g/f/=e/ | e2- e/(d/^c/)d/ e2- e/(d/c/)d/ | %25
 g2- g/(^f/^e/)f/ !4!a2- a/(g/f/)=f/ | f2- (f/e/)^d/e/"^cI" f2- (f/e/)d/e/ | %27
"^cII" a2- a/(^g/^^f/)g/"^cV" b2- b/(a/g/)a/ | !4!a2- a/(!2!g/!1!^f/)g/"^cV" a2- a/(g/f/)g/ | %29
 c'2- c'/(b/^a/)b/"^cVIII" d'2- d'/!2!c'/!0!e/!3!g/ | %30
"^cVII" b2- b/!4!a/!1!c/!3!d/ !0!e2-"^cIII" e/g/!4!b/!2!a/ | %31
 !4!a/g/d/e/ g/f/!0!B/!1!c/ e/d/B/G/ B/!2!A/!3!F/D/ | %32
 !0![Ge](!1!f/e/) !4!d/(!1!c/B/)!2!A/ [CG]c/d/ e/f/(g/e/) | %33
 !2!!1![Af]!4!a/!2!g/ (f/e/)d/c/ !0![DB]/TG/^F/G/ A/B/c/d/ | !0!e>e e>e e>e"^cI" g>f | %35
 [Gce]/!-(!!4!g/!-)!c'/!3!b/ !1!a/!4!g/(f/!0!e/) !0!!4![DGd]/c/B/A/ G/F/(E/D/) | %36
 [Ge](f/e/) d/(c/B/)A/ [CG]c/d/ e/f/(g/e/) | [Af]a/g/ (f/e/)d/c/ [DB]/TG/^F/G/ A/B/c/d/ | %38
 e>e e>e e>e"^cI" g>f | !0!e7/2 !2!d/ !1!c2 c/d/e/f/ | %40
 !2!!1![Ag]a/g/ (Tf/e/)d/^c/ (!3!d/!2!c/)d/!0!e/ !2!f/!4!g/!1!^g/!2!a/ | %41
 !1!!2![c_b]c'/b/ Ta/g/f/e/"^cV" (f/e/)f/g/ a/b/=b/c'/ | %42
 !0!!3!!4![Bfd']e'/d'/"^cVII" T!2!c'/b/a/g/ !4!e'!0!!1!!4![Gec']!4!a"^cI"[Af] | %43
 [Gce]a/g/({ef)g} f/e/f/d/ cc/d/ e/f/g/a/ | %44
 !1!!2![c_b]c'/b/ Ta/g/f/e/"^cV" [Acf]/(c/d/)e/ f/g/a/b/ | %45
"^cVII" [dc']d'/c'/ Tb/a/g/^f/ [Bdg]/f/g/a/ b/c'/d'/e'/ | %46
 !2!!3!!4![dbf']!4!g'/!2!f'/ !-(!T!1!e'/!-)!!4!d'/!2!c'/!1!b/ !4!d'/!1!c'/!3!!1![cg]/!2!^g/ (!4!b/!2!a/)!3!!1![Ac]/d/ | %47
 [Gce]/g/a/g/ Tf/e/d/c/ [DGB]/A/G/^F/ G/=F/E/D/ | C/G,/A,/B,/ C/D/E/F/ G[D^G]A[F=GB] | %49
 [EGc]/(G/A/)B/ c/d/e/f/ g[d^g]a[dfb] | %50
"^cVIII" [Gec']/(!4!e'/c'/)!2!g/ !3!e/c'/g/e/ c/g/e/c/ !0!G/!0!e/!1!c/!0!G/ | %51
 z/ !1!c/!0!G z/ (!4!g/e) z/ e/c z/ c/G | C2 G2 !1!!4![Gec']2 G2 | [EGc]4 z4 |] %54
V:2
 !3!C4 E,4 | D4 !3!G,4 | C2 B,2 A,2 F,2 | !3!G, z z2 !2!B, z z2 | C4 E,4 | D4 G,4 | %6
 !3!C2 B,2 A,2 F,2 | !3!G,2 z2 x/ C3/2 x2 | !2!B,2 z2 E,4 | !0!A,4 !4!D2 z2 | %10
 !3!G,2 !2!^F,2 E,2 A,2 | !0!D2 A,2 !3!D z z2 | !2!B,2 z2 E,4 | %13
 z/ !3!^C/!1!E z/ ^A,/G z/ B,/^F z/ E,/G | z/ !1!^F, z/ z2 [F,^C]/ z3/2 z2 | !1!B, z z2 z4 | %16
 E,4 z2 z3/2 A,/ | D2 z2 z2 z3/2 G,/ | !0!A,4 !1!B,4 | B,2 z2 E,4 | z A, z A, z !2!B,2 B, | %21
 z2 !1!B,2 E,4 | !2!C2 C z B,2 B, z | A,2 A,2 !2!G,2 G, z | !2!C2 C z B,2 B, z | %25
 A,2 A,2 !2!G,2 G, z | D2 D2 C2 C z | B,2 B, z A,2 A,2 | !1!F2 F/ z3/2 E2 E/ z3/2 | %29
 D2 D2 C2 C/ z3/2 | F2 F/ z3/2 !1!G,2 G, z | z [G,FB] z !0![DG] z !1![B,D] z B, | !3!C4 E,4 | %33
 D4 !3!G,4 | !3!C2 B,2 A,2 F,2 | !3!G, z z2 !2!B, z z2 | C4 E,4 | D4 G,4 | C2 B,2 A,2 F,2 | %39
 !3!G,2 z2 x/ C3/2 x2 | !3!^C z A,2 D4 | !3!E z z2 [FAc] z z2 | !2!G z z2 z !3!C z F, | %43
 G, z B, z [CEG] z z2 | !3!E z z2 F z z2 | ^F z z2 G z z2 | !0!G z z2 z E, z !2!^F, | %47
 G,/ z3/2 z2 G,/ z3/2 z2 | C/ z3/2 z2 z B, z G, | C/ z3/2 z2 z B z G | C/ z3/2 z2 z4 | %51
 !2!E>E c>c G>G E>E | !3!C2 G,2 !3!C2 G,2 | C4 z4 |] %54
V:3
 x8 | x8 | z/ G/c/e/ z/ ^G/d/e/ z/ A/c/e/ z/ A/d/f/ | x8 | x8 | x8 | %6
 z/ G/c/e/ z/ ^G/d/e/ z/ A/c/e/ z/ _A/d/f/ | z/ G/^F/G/ ^G/A/!3!^A/!3!B/ z/ !3!C/E/!0!=G/ z2 | x8 | %9
 x8 | z/ D/G/B/ z/ D/!3!A/d/ z/ G/B/g/ z/ ^c/e/a/ | z/ A/d/g/ z/ G/^c/e/ x4 | x8 | x8 | x8 | x8 | %16
 z/ e/d/e/ ^G<[de] z/ A/c/e/ z/ e/c/ z/ | z/ d/c/d/ ^F<[cd] z/ !0!G/!0!B/!3!d/ z/ d/B/ z/ | %18
 z/ c/A/c/ E<[Ac] z/ B/G/B/ E<[GB] | z/ A/^F/A/ B,<[AB] z/ B/G/B/ z/ [GB][GB]/ | %20
 z/ [Ec][Ec]/ z/ [c^f][cf]/ z/ [GB][GB]/ z/ !3![EG][EG]/ | %21
 z/ !2!A/!1!^D/A/ x2 z/ B/G/B/ z/ B/G/!1!E/ | z/ A/^F/A/ x2 z/ G/D/G/ x2 | %23
 z/ c/D/c/ x2 z/ B/D/B/ x2 | z/ A/^F/A/ x2 z/ G/D/G/ x2 | z/ c/D/c/ x2 z/ B/D/B/ x2 | %26
 z/ B/^G/B/ x2 z/ A/E/A/ x2 | z/ d/E/d/ x2 z/ c/E/c/ x2 | z/ !0!B/!0!G/B/ x2 z/ c/G/c/ x2 | %29
 z/ f/G/f/ x2 z/ e/G/e/ x2 | z/ d/A/d/ x2 z/ c/G/c/ x2 | x8 | x8 | x8 | %34
 z/ G/c/e/ z/ ^G/d/e/ z/ A/c/e/ z/ A/d/f/ | x8 | x8 | x8 | %38
 z/ G/c/e/ z/ ^G/d/e/ z/ A/c/e/ z/ _A/d/f/ | z/ TG/^F/G/ ^G/A/!3!^A/!3!B/ z/ !3!C/E/!0!=G/ z2 | %40
 x8 | x8 | x8 | x8 | x8 | x8 | x8 | x8 | x8 | x8 | x8 | x8 | x8 | x8 |] %54
V:4
 x8 | x8 | x8 | x8 | x8 | x8 | x8 | x8 | x8 | x8 | x8 | x8 | x8 | x8 | x8 | x8 | x8 | x8 | x8 | %19
 x6 E z | x8 | x8 | x8 | x8 | x8 | x8 | x8 | x8 | x8 | x8 | x8 | x8 | x8 | x8 | x8 | x8 | x8 | x8 | %38
 x8 | x8 | x8 | x8 | x8 | x8 | x8 | x8 | x8 | x8 | x8 | x8 | x8 | x8 | x8 | x8 |] %54

